!!!OTL: TRAUTE HEIMATH MEINER LIEBEN
!!!ARE: Europa, Mitteleuropa, Deutschland
!!!SCT: F0444
!!!YEM: Copyright 1995, estate of Helmut Schaffrath.
**kern
*ICvox
*Ivox
*M4/4
*k[]
*C:
{8e
8f
8g
8a
=1
4g
4g
8a
8g
8a
8b
=2
4cc
4ee}
{4ee
4cc
=3
4g
4e
4f
4a
=4
2d}
{4.dd
8b
=5
4cc
8r
8ee
4.dd
8b
=6
4cc
4g}
{4ee
4dd
=7
4cc
4b
4a
4g#
=8
2a}
{8cc
8b
8cc
8a
=9
4.g
8e
8f
8e
8f
8d
=10
4c
4r}
==
!!!AGN: Heimat - Lied
!!!ONB: ESAC (Essen Associative Code) Database: FINK
!!!AMT: simple quadruple
!!!AIN: vox
!!!EED: Helmut Schaffrath
!!!EEV: 1.0
*-
